assets/fc/fc-rules.svg

<svg xmlns="http://www.w3.org/2000/svg" width="100%" height="100%" viewBox="0 0 48 48"><path fill="#42A5F5" d="M39 45H9s-3-.1-3-8h36c0 7.9-3 8-3 8z"/><path fill="#90CAF9" d="M8 3h32v34H8z"/><g fill="#1976D2"><path d="M18 15h16v2H18zM18 19h16v2H18zM18 23h16v2H18zM18 27h16v2H18zM18 31h16v2H18z"/></g><g fill="#1976D2"><path d="M14 15h2v2h-2zM14 19h2v2h-2zM14 23h2v2h-2zM14 27h2v2h-2zM14 31h2v2h-2z"/></g></svg>

<svg xmlns="http://www.w3.org/2000/svg" width="100%" height="100%" viewBox="0 0 48 48"><path fill="#42A5F5" d="M39,45H9c0,0-3-0.1-3-8h36C42,44.9,39,45,39,45z"/><path fill="#90CAF9" d="M8 3H40V37H8z"/><g fill="#1976D2"><path d="M18 15H34V17H18zM18 19H34V21H18zM18 23H34V25H18zM18 27H34V29H18zM18 31H34V33H18z"/></g><g fill="#1976D2"><path d="M14 15H16V17H14zM14 19H16V21H14zM14 23H16V25H14zM14 27H16V29H14zM14 31H16V33H14z"/></g></svg>
